X: 2
T: You're Welcome Home Royal Charlie
Z: ceolachan
S: https://thesession.org/tunes/10017#setting20156
R: barndance
M: 4/4
L: 1/8
K: Ador
|: AGED |E2 A2 ABcd | e2 A2 B2 A2 | GAGF GABc | d2 G2 dBAG |
E2 A2 ABcd | e2 f2 g2 a2 | g2 e2 d2 B2 |[1 A4 :|[2 A4 A2 ag ||
|: e2 a2 a2 ga | b3 a g2 e2 | d2 ef g2 a2 | g2 e2 d2 ^cd |
e2 a2 a2 ga | b3 a g2 ed | c2 e2 dcBc |[1 A4 A2 ^cd :|[2 A4 G2 AB ||
|: x[Gc][Gc][Gc] cB [G2c2] [G2c2] | cdef g2 dc | B2 G2 d2 G2 | BcdB GABG |
[G2^c2] cB [G2c2] G2 | cdef g2 fg | a2 e2 dcBc |[1 A4 A2 B2 :|[2 A4 |]
